public/svg/icon/dlt.svg

<svg xmlns="http://www.w3.org/2000/svg" xmlns:xlink="http://www.w3.org/1999/xlink" width="32" height="32" viewBox="0 0 32 32"><defs><linearGradient id="dlt-c" x1="50%" x2="50%" y1="0%" y2="100%"><stop offset="0%" stop-color="#FFF" stop-opacity=".5"/><stop offset="100%" stop-opacity=".5"/></linearGradient><circle id="dlt-b" cx="16" cy="15" r="15"/><filter id="dlt-a" width="111.7%" height="111.7%" x="-5.8%" y="-4.2%" filterUnits="objectBoundingBox"><feOffset dy=".5" in="SourceAlpha" result="shadowOffsetOuter1"/><feGaussianBlur in="shadowOffsetOuter1" result="shadowBlurOuter1" stdDeviation=".5"/><feComposite in="shadowBlurOuter1" in2="SourceAlpha" operator="out" result="shadowBlurOuter1"/><feColorMatrix in="shadowBlurOuter1" values="0 0 0 0 0 0 0 0 0 0 0 0 0 0 0 0 0 0 0.199473505 0"/></filter><path id="dlt-e" d="M15.8069465,7.9582956 L9.71322503,20.9653712 L19.8298092,20.9653712 C20.1230227,20.9653202 20.3880066,21.1442977 20.5033201,21.420279 L20.5140278,21.4454908 C20.5898772,21.6265143 20.5783813,21.8334796 20.4829756,22.0045341 C20.3112643,22.3108127 19.992735,22.4997747 19.6477792,22.5 L8.89623162,22.5 C8.73041926,22.4999186 8.56834398,22.4495706 8.43044901,22.3553064 L8.37369849,22.3169407 C8.14013725,22.1572433 7.99992492,21.8886746 8.00000163,21.601146 C7.99975121,21.471321 8.0283095,21.3431337 8.08352127,21.2262581 L15.2737057,6.07837527 C15.3488438,5.92026845 15.455755,5.78019097 15.5874398,5.66731398 C15.8448685,5.4475684 16.2178828,5.44390106 16.4793867,5.65854467 C16.5362215,5.70456441 16.5823129,5.76298352 16.614303,5.82954617 L23.9072809,21.0815645 C24.0061966,21.2888141 24.02679,21.5261798 23.9651022,21.7480319 C23.8955548,21.9988535 23.6715595,22.1717307 23.4168707,22.171151 L23.333351,22.171151 C22.9931801,22.1711409 22.6836237,21.9699826 22.5388437,21.654858 L16.2491723,7.96048793 C16.2094228,7.87243427 16.1234934,7.81587944 16.0287405,7.8154097 C15.9339876,7.81493997 15.8475272,7.87064018 15.8069465,7.9582956 Z"/><filter id="dlt-d" width="121.9%" height="120.6%" x="-10.9%" y="-7.4%" filterUnits="objectBoundingBox"><feOffset dy=".5" in="SourceAlpha" result="shadowOffsetOuter1"/><feGaussianBlur in="shadowOffsetOuter1" result="shadowBlurOuter1" stdDeviation=".5"/><feColorMatrix in="shadowBlurOuter1" values="0 0 0 0 0 0 0 0 0 0 0 0 0 0 0 0 0 0 0.204257246 0"/></filter></defs><g fill="none" fill-rule="evenodd"><g fill-rule="nonzero"><use fill="#000" filter="url(#dlt-a)" xlink:href="#dlt-b"/><use fill="#F4AE95" fill-rule="evenodd" xlink:href="#dlt-b"/><use fill="url(#dlt-c)" fill-rule="evenodd" style="mix-blend-mode:soft-light" xlink:href="#dlt-b"/><circle cx="16" cy="15" r="14.5" stroke="#000" stroke-opacity=".097"/></g><g fill-rule="nonzero"><use fill="#000" filter="url(#dlt-d)" xlink:href="#dlt-e"/><use fill="#FFF" fill-rule="evenodd" xlink:href="#dlt-e"/></g></g></svg>

<svg xmlns="http://www.w3.org/2000/svg" xmlns:xlink="http://www.w3.org/1999/xlink" width="32" height="32" viewBox="0 0 32 32"><defs><filter id="a" width="111.7%" height="111.7%" x="-5.8%" y="-4.2%" filterUnits="objectBoundingBox"><feOffset dy=".5" in="SourceAlpha" result="shadowOffsetOuter1"/><feGaussianBlur in="shadowOffsetOuter1" result="shadowBlurOuter1" stdDeviation=".5"/><feComposite in="shadowBlurOuter1" in2="SourceAlpha" operator="out" result="shadowBlurOuter1"/><feColorMatrix in="shadowBlurOuter1" values="0 0 0 0 0 0 0 0 0 0 0 0 0 0 0 0 0 0 0.199473505 0"/></filter><filter id="d" width="121.9%" height="120.6%" x="-10.9%" y="-7.4%" filterUnits="objectBoundingBox"><feOffset dy=".5" in="SourceAlpha" result="shadowOffsetOuter1"/><feGaussianBlur in="shadowOffsetOuter1" result="shadowBlurOuter1" stdDeviation=".5"/><feColorMatrix in="shadowBlurOuter1" values="0 0 0 0 0 0 0 0 0 0 0 0 0 0 0 0 0 0 0.204257246 0"/></filter><linearGradient id="c" x1="50%" x2="50%" y1="0%" y2="100%"><stop offset="0%" stop-color="#FFF" stop-opacity=".5"/><stop offset="100%" stop-opacity=".5"/></linearGradient><circle id="b" cx="16" cy="15" r="15"/><path id="e" d="M15.807 7.958L9.713 20.965H19.83c.293 0 .558.18.673.455l.011.025a.641.641 0 01-.031.56.96.96 0 01-.835.495H8.896a.826.826 0 01-.466-.145l-.056-.038a.874.874 0 01-.29-1.09l7.19-15.149c.075-.158.182-.298.313-.41a.692.692 0 01.892-.01.497.497 0 01.135.172l7.293 15.252c.1.207.12.444.058.666a.57.57 0 01-.548.423h-.084a.877.877 0 01-.794-.516L16.249 7.96a.244.244 0 00-.22-.145.244.244 0 00-.222.143z"/></defs><g fill="none"><use fill="#000" filter="url(#a)" xlink:href="#b"/><use fill="#F4AE95" fill-rule="evenodd" xlink:href="#b"/><use fill="url(#c)" fill-rule="evenodd" style="mix-blend-mode:soft-light" xlink:href="#b"/><circle cx="16" cy="15" r="14.5" stroke="#000" stroke-opacity=".097"/><use fill="#000" filter="url(#d)" xlink:href="#e"/><use fill="#FFF" fill-rule="evenodd" xlink:href="#e"/></g></svg>
